X: 113
T:Daichovo Horo
O:Bulgaria
S:from record Folkdance Underground F.U.1
F: http://www.youtube.com/watch?v=jcRjLcPstOc
L:1/8
M:9/8
Q:1/4=240
P:ABBCDEFG
%%MIDI beatstring fpmpmpmpp
K:Bm
%%MIDI program 22 Harmonica
%%MIDI chordprog 117 Melodic Tom
P: A
%%MIDI gchord fz8
| "A" A2 e2 c2 A2 z| A2 =c2 B2 A2 z| A2 e2 c2 A2 z| A2 =c2 B2 A2 z |
P: B
%%MIDI gchord f2z2I2I3
|: A2 A2 AB c3  | dcB2 ABc3     | dcB2 ABc3    | dcB2 A2 A3     :|
P: C
%%MIDI bassprog 117 Melodic Tom
%%MIDI chordprog 117 Melodic Tom
|:"Em" cdefg2f3     | e2 g2 f2 e3   | cdefg2f3     | e2 g2 f2 e2 z  :|
P:D
|:"B" gfed c2B3    | c2 e2 c2 B3   | gfed c2B3    | c2 e2 c2 B2 z  :|
P:E
|: "C^"a^g a2 ag f3 | e3f ed c2z    | a^g a2 ag f3 | e3f ed c3      |
   a^g a2 ag f3 | e3f ed c2z    | d2 d2 dcB3   |"A"A4 z4 z1        :|
P:F
|: "F#"d4 f2 f2 z   | e3 e fed c2   |[1 d4 f2 f2 z | e6 z3          :|\
   [2 d4 dcB3|A6 z3|
P:G
|: "D"dcd2 dcB2 z  | A2AB cd3 z1   | dcd2 dcB2 z  | "A"BA6 z2         :|



